ids-wordpress/site-IdS/assets/images/projetos/icones-ferramentasetec/VSCode.svg

<svg width="36" height="36" viewBox="0 0 36 36" fill="none" xmlns="http://www.w3.org/2000/svg">
<g clip-path="url(#clip0_694_1627)">
<path d="M16.362 0.503005C29.2676 -0.579013 39.0907 11.464 34.7703 23.8482C30.0388 37.4108 11.6674 39.5127 3.55413 27.8033C-3.97686 16.9324 3.23321 1.60405 16.362 0.503005ZM16.9963 1.64337C4.10212 2.54146 -2.88977 17.4474 5.05348 27.8274C12.1481 37.0988 26.3551 36.259 32.336 26.2304C39.111 14.8686 30.0096 0.737674 16.9963 1.64337Z" fill="#F75705"/>
<path d="M7.68582 23.105C5.81734 20.9854 9.75979 19.3275 10.8063 17.8814C10.8507 17.6861 8.2782 15.7428 7.93952 15.3736C6.59873 13.9149 7.19238 12.6908 8.68919 11.714C10.205 10.7259 10.7974 11.2866 12.0114 12.2532C12.3526 12.5246 14.6333 14.6924 14.8629 14.5288C14.8781 14.3791 14.9466 14.2548 15.0494 14.1483C16.72 12.4041 18.3652 10.6029 20.0612 8.88913C20.8502 8.09126 21.8079 6.80374 23.0307 6.93567C23.6028 6.99782 26.637 8.54157 27.2522 8.93099C28.0463 9.43331 28.4776 9.94451 28.5638 10.9149C28.2556 15.3724 28.957 20.3423 28.5638 24.7376C28.494 25.5177 28.1579 26.157 27.5363 26.6251C26.9985 27.0297 24.4083 28.3058 23.7385 28.5316C22.8594 28.8284 22.1986 28.7257 21.4578 28.1574L14.4075 21.13C13.1073 21.8581 11.2718 24.3786 9.7395 24.2936C9.21815 24.2644 8.03212 23.4945 7.68709 23.1038L7.68582 23.105ZM8.56869 14.492C9.26128 15.3127 10.8456 16.3009 11.6993 17.1279C12.0063 17.4248 12.3323 17.6239 12.1826 18.1161L8.33655 21.6323C7.96362 22.4429 9.88411 23.6835 10.5995 22.8754L14.112 19.9224L14.5432 19.8501L22.4662 27.5282C22.6527 27.5917 22.8467 27.6082 23.0421 27.5929C23.3859 27.5676 26.3376 26.1113 26.7448 25.8361C27.3829 25.4035 27.4843 24.9849 27.549 24.2314C27.8154 21.1161 27.5757 17.0188 27.549 13.8413C27.5376 12.5107 27.9055 10.7018 26.6991 9.86586C26.2945 9.58553 23.6484 8.23586 23.2374 8.12804C22.5715 7.95426 22.1554 8.32085 21.7102 8.76355C20.7715 9.69716 19.8519 10.8515 18.9284 11.8117C17.6028 13.1893 16.2557 14.5567 14.9048 15.9089L14.4912 15.8645L10.2342 12.3838C9.29426 12.3483 7.73402 13.5026 8.56996 14.4933L8.56869 14.492Z" fill="#F75705"/>
<path d="M23.7106 23.2447C23.4823 23.4743 22.966 23.4299 22.7326 23.2054C21.1711 21.5449 19.1428 20.2219 17.528 18.6515C17.2794 18.4105 16.7771 17.9894 16.7771 17.6355L17.1437 16.9974L22.8544 12.3155C23.3339 12.0808 23.8375 12.4245 23.873 12.9408C23.6599 16.0626 24.133 19.5027 23.8717 22.5838C23.8552 22.7804 23.8501 23.1026 23.7093 23.2447H23.7106ZM22.8531 21.7555V13.7717L18.1623 17.7598L22.8531 21.7555Z" fill="#F75705"/>
</g>
<defs>
<clipPath id="clip0_694_1627">
<rect width="35.3019" height="35.0026" fill="white" transform="translate(0.502411 0.436035)"/>
</clipPath>
</defs>
</svg>

<svg xmlns="http://www.w3.org/2000/svg" width="36" height="36" fill="none"><g fill="#F75705" clip-path="url(#a)"><path d="M16.362.503C29.268-.579 39.091 11.464 34.77 23.848 30.04 37.411 11.667 39.513 3.554 27.803c-7.53-10.87-.32-26.199 12.808-27.3Zm.634 1.14C4.102 2.541-2.89 17.447 5.053 27.827c7.095 9.272 21.302 8.432 27.283-1.597C39.111 14.87 30.01.738 16.996 1.643Z"/><path d="M7.686 23.105c-1.869-2.12 2.074-3.777 3.12-5.224.045-.195-2.528-2.138-2.866-2.507-1.341-1.46-.748-2.683.75-3.66 1.515-.988 2.107-.427 3.321.54.342.27 2.622 2.438 2.852 2.275a.631.631 0 0 1 .186-.38c1.671-1.745 3.316-3.546 5.012-5.26.79-.798 1.747-2.085 2.97-1.953.572.062 3.606 1.606 4.221 1.995.794.502 1.226 1.014 1.312 1.984-.308 4.457.393 9.427 0 13.823-.07.78-.406 1.419-1.028 1.887-.538.405-3.128 1.68-3.798 1.907-.879.296-1.54.194-2.28-.375l-7.05-7.027c-1.3.728-3.136 3.249-4.668 3.164-.522-.03-1.708-.8-2.053-1.19l-.001.001Zm.883-8.613c.692.82 2.277 1.809 3.13 2.636.307.297.633.496.484.988l-3.846 3.516c-.373.81 1.547 2.051 2.263 1.243l3.512-2.953.431-.072 7.923 7.678c.187.064.38.08.576.065.344-.025 3.296-1.482 3.703-1.757.638-.432.74-.851.804-1.605.266-3.115.027-7.212 0-10.39-.011-1.33.357-3.14-.85-3.975-.405-.28-3.05-1.63-3.462-1.738-.665-.174-1.082.193-1.527.636-.939.933-1.858 2.088-2.782 3.048a306.637 306.637 0 0 1-4.023 4.097l-.414-.045-4.257-3.48c-.94-.036-2.5 1.119-1.664 2.11l-.001-.002Z"/><path d="M23.71 23.245c-.228.23-.744.185-.977-.04-1.562-1.66-3.59-2.983-5.205-4.553-.249-.242-.75-.663-.75-1.017l.366-.638 5.71-4.681c.48-.235.983.108 1.019.625-.213 3.122.26 6.562-.001 9.643-.017.196-.022.519-.163.66h.002Zm-.857-1.49v-7.983l-4.69 3.988 4.69 3.995Z"/></g><defs><clipPath id="a"><path fill="#fff" d="M.502.436h35.302v35.003H.502z"/></clipPath></defs></svg>
